X:1
T:POEMETO
T:POEMETO
T:para flauta e piano
T:Osvaldo Lacerda (1974)
C:Osvaldo Lacerda (1974)
L:1/8
Q:3/8=66
M:6/8
K:C
V:1 treble nm="Flauta Transversal" snm="Fl."
V:1
"^Tranquilamente Movido" z6 (a/d'/ |!mf!!>(! (c'3) a3)!>)! (a/d'/ |!>(! (c'3) a3)!>)! (a/d'/ | %3
!<(! (c'>)d'!<)!f'/d'/ c'>af/d/ |"^5"!>(! g3 d2)!>)!!<(! (a!<)! |!>(! g3 (d>)!>)!!<(!f_a!<)! | %6
!>(! g3 _d)!>)!!<(!((f_a!<)! | g>=ag fdf) |!>(! (f3 d))!>)!z!<(!(d'!<)! |"^10" _e'd'c' bgf | %10
!>(! a/c'/g/a/f/g/!>)! d>)!<(!fa/c'/ | (_e'!<)!g'f' e'd'c' | b>c'd'!>(! c' a2)!>)! | %13
!mp! ((^g>a_b a2 _e) |"^15" (d>^fg/_a/ g ^c2)) |!mf! (^c'!>(! g2) (^c2!>)!!p! G) | %16
!mf! (^c'>!>(!^fg/d/ ^c!>)!!p! G2) |!mf! (=f>^ga/f/ d)!<(!cd | fa!<)!c'!f! (!>!_e'/d'/ c'2) | %19
!mf!"^20" (!tenuto!f!<(!fa!<)! g>!>(!fd!>)! | f3-) fz!mp!(G |!<(! _Ac!<)!_e!>(! =d>_BA!>)! | %22
 c2)!<(! (_e =d!<)!_B_A |!>(! c3 _A)!>)!((FG |"^25" _A)(Ac!>(! _B>cA || %25
[M:9/8] F3-))!>)! F!mf!((F!<(!G _A)(A_e!<)! ||[M:6/8]!>(! f!<(!_e)!>)!(e!<)! _a2 f | %27
!>(! _ec))!>)!!<(!((_a/c'/!f! _e')!<)!(e'f' | _d'_bg f)(f_e | %29
"^30"!>(! !>!c'_a)).f !tenuto!_e2!>)!!<(! e!<)! || %30
[M:9/8]!f! (!>!g'/_a'/f'/g'/_e'/f'/ _d'/e'/c'/d'/_b/c'/ _a/c'/)b/a/g/f/ || %31
[M:6/8]"^dolce" !tenuto!_e!mf!"_subito"((F!<(!G _A)(Ae!<)! | %32
!>(! f_e)!>)!!<(!(e _a>!<)!!courtesy!=gf | _e3 c3-)) |"^35" c3!p! z ((FG | %35
 _A)!<(!(Ac!<)! _B>!>(!cA | F3))!>)!!mp! z (c_B || %37
[M:9/8] G2)"_poco rall."!<(! (G!mf! _B3!<)! =A3 ||[M:6/8]"^a tempo" F3) z z2 | z6 | z6 | %41
 z4 z2!mf! (f/a/ |!>(! (g3) d)!>)! z2 | z3!mf! z!<(! ((f_a!<)! |"^45" g>=ag fdf) | %45
 (f3 d)) z!<(! (d' | _e'!<)!d'c' bgf |!>(! a/c'/g/a/f/g/!>)! d>)!<(!fa/c'/ | (_e'!<)!g'f' e'd'c' | %49
"^50" b>c'd'!>(! c' a2)!>)! |!mp! ((^g>a_b a2 _e) | (d>^fg/_a/ g ^c2)) | %52
!mf! (^c'!>(! g2) (^c2!>)!!p! G) |!mf! (^c'>!>(!^fg/d/ ^c!>)!!p! G2) |!mf!"^55" (=f>^ga/f/ d)cd | %55
!<(! f/=g/a/=b/c'/d'/!<)! (!>!_e'/d'/ c'2) |!<(! (!tenuto!ffa!<)!!>(! g>fd | ^c6)!>)! | %58
!mf! z (f!<(!a gfd)!<)! |!f!"^60"!>(! (!>!b3 B3)!>)! || %60
[M:9/8] z3!mf! z"_sempre in tempo" (fa gfd) |!<(! !trill(!Te6-!<)!!>(! !trill)!e3!>)! | %62
!mf! !tenuto!e3 !tenuto!c3 !breath!!tenuto!d3 ||[M:6/8]!>(! (d6 |"^65" f6-) | %65
"^lunga"!p! !fermata!f6!>)! |] %66

